dist/images/lightning-bolt.svg

<svg width="45" height="45" viewBox="0 0 45 45" fill="none" xmlns="http://www.w3.org/2000/svg">
<path d="M34.3167 11.8452C34.0467 11.575 33.7397 11.4398 33.3974 11.4391C33.3244 11.4391 33.2172 11.4574 33.0723 11.4933L22.3634 14.1435L26.9874 1.62255C27.0774 1.4423 27.1229 1.28023 27.1229 1.13579C27.1229 0.829462 27.0053 0.563678 26.7712 0.338245C26.5369 0.112527 26.2484 0 25.906 0H17.036C16.7476 0 16.4953 0.0809855 16.2788 0.243241C16.0625 0.405685 15.918 0.613122 15.8461 0.865266L10.4105 23.1762C10.3202 23.6085 10.4374 23.9602 10.762 24.2309C10.9963 24.4297 11.2755 24.5282 11.6001 24.5282C11.7444 24.5282 11.8526 24.5198 11.9247 24.5016L22.9041 21.77L17.5766 43.6211C17.5047 43.9095 17.5451 44.1798 17.6986 44.4321C17.8519 44.6849 18.0819 44.856 18.3882 44.9461C18.5685 44.9818 18.695 44.9999 18.767 44.9999C19.2898 44.9999 19.6682 44.7749 19.9028 44.324L34.506 13.035C34.7044 12.6024 34.6418 12.2056 34.3167 11.8452Z" fill="white"/>
</svg>

<svg width="45" height="45" fill="none" xmlns="http://www.w3.org/2000/svg"><path d="M34.317 11.845c-.27-.27-.577-.405-.92-.406-.073 0-.18.018-.325.054l-10.709 2.65 4.624-12.52c.09-.18.136-.343.136-.487 0-.307-.118-.572-.352-.798A1.2 1.2 0 0 0 25.906 0h-8.87c-.288 0-.54.081-.757.243a1.16 1.16 0 0 0-.433.622l-5.435 22.311c-.09.433.026.784.351 1.055.234.199.513.297.838.297.144 0 .253-.008.325-.026l10.98-2.732-5.328 21.851c-.072.288-.032.559.122.811.153.253.383.424.69.514.18.036.306.054.378.054.523 0 .901-.225 1.136-.676l14.603-31.289c.198-.433.136-.83-.19-1.19Z" fill="#fff"/></svg>
